!!!COM: Aaron Copland
!!!OTL: T709_Cop-w10p59m5-1h46m1-2
**kern	**dynam	**kern	**dynam	**kern	**dynam	**kern	**dynam	**kern	**dynam	**kern	**dynam	**kern	**dynam	**kern	**dynam	**kern	**dynam	**kern	**dynam	**kern	**dynam	**kern	**dynam	**kern	**dynam
*grp:A	*grp:A	*grp:B	*grp:B	*grp:B	*grp:B	*grp:B	*grp:B	*grp:B	*grp:B	*grp:A	*grp:A	*grp:A	*grp:A	*grp:A	*grp:A	*grp:A	*grp:A	*grp:A	*grp:A	*grp:A	*grp:A	*grp:A	*grp:A	*grp:A	*grp:A
*part13	*	*part12	*	*part11	*	*part10	*	*part9	*	*part8	*	*part7	*	*part6	*	*part5	*	*part4	*	*part3	*	*part2	*	*part1	*
*staff13	*	*staff12	*	*staff11	*	*staff10	*	*staff9	*	*staff8	*	*staff7	*	*staff6	*	*staff5	*	*staff4	*	*staff3	*	*staff2	*	*staff1	*
*I"Contrabass	*	*I"Violoncello	*	*I"Viola	*	*I"Violin II	*	*I"Violin I	*	*I"Trumpet in C II.	*	*I"Trumpet in C I.	*	*I"Contrabassoon	*	*I"Bassoon I. II.	*	*I"Heckelphone	*	*I"Oboe I.	*	*I"Flute I. II.	*	*I"Piccolo	*
*I'Cb.	*	*I'Vc.	*	*I'Vla.	*	*I'Vln. II	*	*I'Vln. I	*	*I'C Tpt.	*	*I'C Tpt.	*	*I'Cbsn.	*	*I'Bsn.	*	*I'Heckl.	*	*I'Ob.	*	*I'Fl.	*	*I'Picc.	*
!!pagebreak:original
*clefF4	*	*clefF4	*	*clefC3	*	*clefG2	*	*clefG2	*	*clefG2	*	*clefG2	*	*clefF4	*	*clefF4	*	*clefG2	*	*clefG2	*	*clefG2	*	*clefG2	*
*Trd0c0	*	*	*	*	*	*	*	*	*	*	*	*	*	*Trd0c0	*	*	*	*Trd0c0	*	*	*	*	*	*Trd0c0	*
*k[]	*	*k[]	*	*k[]	*	*k[]	*	*k[]	*	*k[]	*	*k[]	*	*k[]	*	*k[]	*	*k[]	*	*k[]	*	*k[]	*	*k[]	*
*	*	*	*	*	*	*	*	*	*	*	*	*	*	*	*	*	*	*	*	*	*	*	*	*	*
*M3/8	*	*M3/8	*	*M3/8	*	*M3/8	*	*M3/8	*	*M3/8	*	*M3/8	*	*M3/8	*	*M3/8	*	*M3/8	*	*M3/8	*	*M3/8	*	*M3/8	*
=1	=1	=1	=1	=1	=1	=1	=1	=1	=1	=1	=1	=1	=1	=1	=1	=1	=1	=1	=1	=1	=1	=1	=1	=1	=1
!	!	!	!	!	!	!	!	!	!	!	!	!	!	!	!	!	!	!	!	!	!	!	!	!LO:TX:t=[[quarter]=144]	!
!	!	!	!	!	!	!	!	!	!	!	!	!	!	!	!	!	!	!	!	!	!	!	!	!LO:TX:a:t=[(exaggerate all accents)]	!
!LO:TX:a:t=[pizz.]	!LO:DY:ed=brack	!	!LO:DY:ed=brack	!	!LO:DY:ed=brack	!	!LO:DY:ed=brack	!	!LO:DY:ed=brack	!	!LO:DY:ed=brack	!	!LO:DY:ed=brack	!	!LO:DY:ed=brack	!	!LO:DY:ed=brack	!	!LO:DY:ed=brack	!	!LO:DY:ed=brack	!	!LO:DY:ed=brack	!	!LO:DY:ed=brack
8%3r	ff	8%3ryy	4ryy	8ryy	4ryy	8ryy	4ryy	8ryy	4ryy	8r	mf	8ee^	mf	8%3r	ff	8%3r	f	4r	f	4r	f	8eee^	f	8ee^	f
.	.	.	.	8ryy	.	8ryy	.	8ryy	.	8bn	.	8r	.	.	.	.	.	.	.	.	.	8r	.	8r	.
.	.	.	.	8ryy	.	8ryy	.	8ryy	.	8r^	.	8r	.	.	.	.	.	8bb^	.	8bb^	.	8r	.	8r	.
=2	=2	=2	=2	=2	=2	=2	=2	=2	=2	=2	=2	=2	=2	=2	=2	=2	=2	=2	=2	=2	=2	=2	=2	=2	=2
*M4/8	*	*M4/8	*	*M4/8	*	*M4/8	*	*M4/8	*	*M4/8	*	*M4/8	*	*M4/8	*	*M4/8	*	*M4/8	*	*M4/8	*	*M4/8	*	*M4/8	*
2r	.	2ryy	.	8ryy	.	8ryy	.	8ryy	.	4r^	.	8ff#X^	.	2r	.	2r	.	8r^	.	8r^	.	8fff#X^	.	8ff#X^	.
.	.	.	.	8ryy	.	8ryy	.	8ryy	.	.	.	8r^	.	.	.	.	.	8gg#X^	.	8gg#X^	.	8r^	.	8r^	.
.	.	.	.	8ryy	.	8ryy	.	8ryy	.	8f#X	.	8dd#X^	.	.	.	.	.	8r	.	8r	.	8ddd#X^	.	8dd#X^	.
.	.	.	.	8ryy	.	8ryy	.	8ryy	.	8r	.	8r	.	.	.	.	.	8gg#^	.	8gg#^	.	8r	.	8r	.
=3	=3	=3	=3	=3	=3	=3	=3	=3	=3	=3	=3	=3	=3	=3	=3	=3	=3	=3	=3	=3	=3	=3	=3	=3	=3
*M3/8	*	*M3/8	*	*M3/8	*	*M3/8	*	*M3/8	*	*M3/8	*	*M3/8	*	*M3/8	*	*M3/8	*	*M3/8	*	*M3/8	*	*M3/8	*	*M3/8	*
8D-X^	.	8ryy	.	8ryy	.	8ryy	.	8ryy	.	8a	.	8dd#X^	.	8%3r	.	8BBB-X^ 8E-X	.	8%3r	.	8%3r	.	8ddd#X^	.	8dd#X^	.
8r	.	8ryy	.	8ryy	.	8ryy	.	8ryy	.	8r	.	8r	.	.	.	8r	.	.	.	.	.	8r	.	8r	.
8r	.	8ryy	.	8ryy	.	8ryy	.	8ryy	.	8r	.	8r	.	.	.	8r	.	.	.	.	.	8r	.	8r	.
=4	=4	=4	=4	=4	=4	=4	=4	=4	=4	=4	=4	=4	=4	=4	=4	=4	=4	=4	=4	=4	=4	=4	=4	=4	=4
*M4/8	*	*M4/8	*	*M4/8	*	*M4/8	*	*M4/8	*	*M4/8	*	*M4/8	*	*M4/8	*	*M4/8	*	*M4/8	*	*M4/8	*	*M4/8	*	*M4/8	*
8D-X^	.	8ryy	.	8ryy	.	8ryy	.	4ryy	.	8r^	.	4r	.	2r	.	8BBB-X^ 8E-X	.	8aa^	.	8aa^	.	4r	.	4r	.
8r	.	8ryy	.	8ryy	.	8ryy	.	.	.	8e^	.	.	.	.	.	8r	.	8r^	.	8r^	.	.	.	.	.
8r	.	4ryy	.	8ryy	.	8ryy	.	8ryy	.	8r^	.	8ee^	.	.	.	4r	.	8ccc#X^	.	8ccc#X^	.	8eee^	.	8ee^	.
8r	.	.	.	8ryy	.	8ryy	.	8ryy	.	8g#X^	.	8r	.	.	.	.	.	8r^	.	8r^	.	8r	.	8r	.
=5	=5	=5	=5	=5	=5	=5	=5	=5	=5	=5	=5	=5	=5	=5	=5	=5	=5	=5	=5	=5	=5	=5	=5	=5	=5
*M3/8	*	*M3/8	*	*M3/8	*	*M3/8	*	*M3/8	*	*M3/8	*	*M3/8	*	*M3/8	*	*M3/8	*	*M3/8	*	*M3/8	*	*M3/8	*	*M3/8	*
4r	.	4ryy	.	8ryy	4ryy	8ryy	4ryy	8ryy	4ryy	4r^	<	8gg#X^	<	8%3r	.	4r	<	8r^	<	8r^	<	8ggg#X^	<	8gg#X^	<
.	.	.	.	8ryy	.	8ryy	.	8ryy	.	.	.	8r	.	.	.	.	.	8eee^	.	8eee^	.	8r	.	8r	.
8D-X^	<	8ryy	4ryy	8ryy	.	8ryy	.	8ryy	.	8f#X^	.	8r	.	.	.	8BBB-X^ 8E-X	.	8r^	.	8r^	.	8r	.	8r	.
!!LO:REH:t=46
=6	=6	=6	=6	=6	=6	=6	=6	=6	=6	=6	=6	=6	=6	=6	=6	=6	=6	=6	=6	=6	=6	=6	=6	=6	=6
*M5/8	*	*M5/8	*	*M5/8	*	*M5/8	*	*M5/8	*	*M5/8	*	*M5/8	*	*M5/8	*	*M5/8	*	*M5/8	*	*M5/8	*	*M5/8	*	*M5/8	*
4r	.	8ryy	.	8ryy	.	8ryy	.	8ryy	.	8r	.	8bb^	.	8%5r	.	4r	.	8bb^	.	8bb^	.	8bbb^	.	8bb^	.
.	.	8ryy	.	8ryy	.	8ryy	.	8ryy	.	8r	.	8r	.	.	.	.	.	8r	.	8r	.	8r	.	8r	.
8D-X^	.	8ryy	.	8ryy	.	8ryy	.	8ryy	.	8g#X^	.	8ff#X^	.	.	.	8BBB-X^ 8E-X	.	8r	.	8r	.	8fff#X^	.	8ff#X^	.
4r	.	4ryy	.	8ryy	.	8ryy	.	8ryy	.	4r	.	4r	.	.	.	4r	.	8ddd^	.	8ddd^	.	4r	.	4r	.
.	.	.	.	8ryy	.	8ryy	.	8ryy	.	.	.	.	.	.	.	.	.	8r	.	8r	.	.	.	.	.
*	*	*	*	*clefG2	*	*	*	*	*	*	*	*	*	*	*	*	*	*	*	*	*	*	*	*	*
=7	=7	=7	=7	=7	=7	=7	=7	=7	=7	=7	=7	=7	=7	=7	=7	=7	=7	=7	=7	=7	=7	=7	=7	=7	=7
4r	.	4ryy	.	8ryy	.	8ryy	.	8ryy	.	8cc#X^	.	8aa^	.	4r	.	4r	.	8bb^	.	8bb^	.	8aaa^	.	8aa^	.
.	.	.	.	8ryy	.	8ryy	.	8ryy	.	8r	.	8r	.	.	.	.	.	8r	.	8r	.	8r	.	8r	.
4r	.	4ryy	.	8ryy	.	8ryy	.	8ryy	.	8r	.	8r	.	4r	.	4r	.	8r	.	8r	.	8gg#X^	.	8gg#X^	.
.	.	.	.	8ryy	.	8ryy	.	8ryy	.	4r	.	4r	.	.	.	.	.	8ddd^	.	8ddd^	.	4r	.	4r	.
!	!	!	!	!	!	!	!	!	!	!	!	!	!	!	!	!LO:TX:a:B:t=a 2	!	!	!	!	!	!	!	!	!
8D-X^	.	8ryy	.	8ryy	.	8ryy	.	8ryy	.	.	.	.	.	8D-X^	.	8E-X^	.	8r	.	8r	.	.	.	.	.
=||	=||	=||	=||	=||	=||	=||	=||	=||	=||	=||	=||	=||	=||	=||	=||	=||	=||	=||	=||	=||	=||	=||	=||	=||	=||
*-	*-	*-	*-	*-	*-	*-	*-	*-	*-	*-	*-	*-	*-	*-	*-	*-	*-	*-	*-	*-	*-	*-	*-	*-	*-
!!!system-decoration: [(s1,s2,s3,s4,s5,s6)][(s7,s8)][(s9,s10,s11,s12,s13)]
